X: 1
T: Ballyoran
M: 2/4
L: 1/8
R: polka
K: Amaj
AE/A/ cA/c/|ec/e/ ac|ed dB|fe c/d/c/B/|
AE/A/ cA/c/|ec/e/ ac|ed dG|1 BA Ac/B/:|2 BA Ac||
ed dB|fe cA/c/|ed dB|fe c/d/c/B/|
AE/A/ cA/c/|ec/e/ ac|ed dG|1 BA Ac:|2 BA A2||
